source/img/logo_cat-energy-text.svg

<svg width="101" height="18" xmlns="http://www.w3.org/2000/svg" fill="none"><g clip-path="url(#clip0)"><path d="M1.3 16.5C.4 15.3-.1 13.8 0 12.2V5.8c-.1-1.5.3-3 1.2-4.3C2.1.5 3.4 0 5.4 0c1.9 0 3.2.5 4 1.3.9 1.1 1.3 2.4 1.2 3.8v1.5H6.7V4.8c0-.5 0-1-.2-1.5-.1-.2-.3-.4-.5-.5-.2-.1-.4-.1-.6-.1-.6 0-1 .1-1.1.5-.2.6-.3 1.1-.3 1.7v8.3c0 .5.1 1.1.3 1.6.2.4.6.5 1.2.5.5 0 .8-.1 1-.5.2-.6.2-1.1.2-1.6v-1.9h3.9v1.5c.1 1.4-.3 2.8-1.2 3.9-.8.9-2.1 1.4-4 1.4-1.9-.1-3.3-.6-4.1-1.6zM15.3.2h4.5l3.3 17.6h-3.7l-.6-3.7h-2.6l-.6 3.7h-3.7L15.3.2zm3.2 11.6l-1-6.9-.9 6.9h1.9zM25.8 3.2h-2.6v-3h9.4v2.9h-2.7v14.7h-4.1V3.2zM39.8.2h6.9v1.9h-4.5v5.7h3.6v1.8h-3.6v6.5h4.5v1.7h-7V.2h.1zM48.8.2h1.7l5.1 11.6V.2h2.1v17.6h-1.6l-5.2-12v12h-2.1V.2zM60.1.2H67v1.9h-4.5v5.7h3.6v1.8h-3.6v6.5H67v1.7h-6.9V.2zM69.1.2h3.6c1.4-.1 2.9.3 4 1.1.9.7 1.3 1.9 1.3 3.5 0 2.3-.7 3.7-2.2 4.1l2.5 8.8h-2.4l-2.4-8.2h-2v8.2H69V.2h.1zm3.4 7.6c.9 0 1.7-.2 2.3-.6.5-.4.8-1.2.8-2.4 0-.5-.1-1.1-.3-1.6-.2-.4-.5-.8-.9-1-.5-.2-1.1-.3-1.7-.3h-1.1v5.8h.9v.1zM81.2 16.5c-.9-1.4-1.2-2.9-1.1-4.5V6.2c-.1-1.2.1-2.3.4-3.4.2-.8.7-1.5 1.5-2s1.9-.7 2.9-.6c1.6 0 2.8.3 3.5 1.2.9 1.1 1.2 2.5 1.1 3.8v.6h-2.3v-.5c0-.6-.1-1.3-.2-1.9-.1-.4-.3-.8-.6-1-.5-.3-1-.4-1.5-.4-.6 0-1.1.1-1.6.5-.2.1-.3.3-.4.5-.2.2-.2.5-.2.7-.1.7-.2 1.4-.2 2.1v6.5c-.1 1 .1 2 .5 2.9.3.6.9.9 1.9.9.4 0 .7 0 1.1-.2.3-.2.6-.4.8-.7.4-1 .6-2.1.5-3.1v-1.3H85V9.1h4.6v8.7H88l-.2-2c-.2.6-.6 1.2-1.2 1.6-.6.4-1.3.6-2 .6s-1.3-.1-1.9-.4c-.6-.2-1.1-.6-1.5-1.1zM94.7 11.6L90.8.3h2.4l2.7 8.5L98.6.3h2.4l-3.9 11.3v6.2h-2.3v-6.2h-.1z" fill="#111"/></g></svg>

<svg width="101" height="18" viewBox="0 0 101 18" xmlns="http://www.w3.org/2000/svg" fill="none"><style>.a{fill:#111;}</style><g clip-path="url(#clip0)"><path d="M1.3 16.5C0.4 15.3-0.1 13.8 0 12.2V5.8C-0.1 4.3 0.3 2.8 1.2 1.5 2.1 0.5 3.4 0 5.4 0 7.3 0 8.6 0.5 9.4 1.3 10.3 2.4 10.7 3.7 10.6 5.1V6.6H6.7V4.8C6.7 4.3 6.7 3.8 6.5 3.3 6.4 3.1 6.2 2.9 6 2.8 5.8 2.7 5.6 2.7 5.4 2.7 4.8 2.7 4.4 2.8 4.3 3.2 4.1 3.8 4 4.3 4 4.9V13.2C4 13.7 4.1 14.3 4.3 14.8 4.5 15.2 4.9 15.3 5.5 15.3 6 15.3 6.3 15.2 6.5 14.8 6.7 14.2 6.7 13.7 6.7 13.2V11.3H10.6V12.8C10.7 14.2 10.3 15.6 9.4 16.7 8.6 17.6 7.3 18.1 5.4 18.1 3.5 18 2.1 17.5 1.3 16.5Z" class="a"/><path d="M15.3 0.2H19.8L23.1 17.8H19.4L18.8 14.1H16.2L15.6 17.8H11.9L15.3 0.2ZM18.5 11.8L17.5 4.9 16.6 11.8H18.5Z" class="a"/><path d="M25.8 3.2H23.2V0.2H32.6V3.1H29.9V17.8H25.8V3.2Z" class="a"/><path d="M39.8 0.2H46.7V2.1H42.2V7.8H45.8V9.6H42.2V16.1H46.7V17.8H39.7V0.2H39.8Z" class="a"/><path d="M48.8 0.2H50.5L55.6 11.8V0.2H57.7V17.8H56.1L50.9 5.8V17.8H48.8V0.2Z" class="a"/><path d="M60.1 0.2H67V2.1H62.5V7.8H66.1V9.6H62.5V16.1H67V17.8H60.1V0.2Z" class="a"/><path d="M69.1 0.2H72.7C74.1 0.1 75.6 0.5 76.7 1.3 77.6 2 78 3.2 78 4.8 78 7.1 77.3 8.5 75.8 8.9L78.3 17.7H75.9L73.5 9.5H71.5V17.7H69V0.2H69.1ZM72.5 7.8C73.4 7.8 74.2 7.6 74.8 7.2 75.3 6.8 75.6 6 75.6 4.8 75.6 4.3 75.5 3.7 75.3 3.2 75.1 2.8 74.8 2.4 74.4 2.2 73.9 2 73.3 1.9 72.7 1.9H71.6V7.7H72.5V7.8Z" class="a"/><path d="M81.2 16.5C80.3 15.1 80 13.6 80.1 12V6.2C80 5 80.2 3.9 80.5 2.8 80.7 2 81.2 1.3 82 0.8 82.8 0.3 83.9 0.1 84.9 0.2 86.5 0.2 87.7 0.5 88.4 1.4 89.3 2.5 89.6 3.9 89.5 5.2V5.8H87.2V5.3C87.2 4.7 87.1 4 87 3.4 86.9 3 86.7 2.6 86.4 2.4 85.9 2.1 85.4 2 84.9 2 84.3 2 83.8 2.1 83.3 2.5 83.1 2.6 83 2.8 82.9 3 82.7 3.2 82.7 3.5 82.7 3.7 82.6 4.4 82.5 5.1 82.5 5.8V12.3C82.4 13.3 82.6 14.3 83 15.2 83.3 15.8 83.9 16.1 84.9 16.1 85.3 16.1 85.6 16.1 86 15.9 86.3 15.7 86.6 15.5 86.8 15.2 87.2 14.2 87.4 13.1 87.3 12.1V10.8H85V9.1H89.6V17.8H88L87.8 15.8C87.6 16.4 87.2 17 86.6 17.4 86 17.8 85.3 18 84.6 18 83.9 18 83.3 17.9 82.7 17.6 82.1 17.4 81.6 17 81.2 16.5Z" class="a"/><path d="M94.7 11.6L90.8 0.3H93.2L95.9 8.8 98.6 0.3H101L97.1 11.6V17.8H94.8V11.6H94.7Z" class="a"/></g><defs><clipPath><rect width="101" height="18" fill="white"/></clipPath></defs></svg>
